src/assets/outline/TrushSquare.svg

<?xml version="1.0" encoding="UTF-8"?>
<svg width="24" height="24" viewBox="0 0 24 24" xmlns="http://www.w3.org/2000/svg">
 <path d="m15 22.75h-6c-5.43 0-7.75-2.32-7.75-7.75v-6c0-5.43 2.32-7.75 7.75-7.75h6c5.43 0 7.75 2.32 7.75 7.75v6c0 5.43-2.32 7.75-7.75 7.75zm-6-20c-4.61 0-6.25 1.64-6.25 6.25v6c0 4.61 1.64 6.25 6.25 6.25h6c4.61 0 6.25-1.64 6.25-6.25v-6c0-4.61-1.64-6.25-6.25-6.25h-6z"/>
 <path d="m17.9 9.8h-0.07c-3.46-0.34-6.9-0.48001-10.31-0.13001l-1.34 0.13001c-0.42 0.04-0.78-0.26-0.82-0.67s0.26-0.78001 0.67-0.82001l1.34-0.13c3.51-0.35 7.05-0.22 10.61 0.13 0.41 0.04 0.71 0.41001 0.67 0.82001-0.04 0.38-0.37 0.67-0.75 0.67z"/>
 <path d="m14.29 9.14c-0.36 0-0.68-0.25999-0.74-0.61999l-0.14-0.85001c-0.02-0.14-0.06-0.36-0.1-0.41 0 0-0.1-0.06-0.46-0.06h-1.72c-0.37 0-0.47 0.06-0.47 0.06-0.02 0.04-0.06 0.26001-0.08 0.40001l-0.14 0.86c-0.07 0.41-0.46001 0.67999-0.86001 0.61999-0.41-0.07-0.68-0.46-0.62-0.86l0.14-0.86c0.11-0.64 0.29-1.71 2.03-1.71h1.72c1.75 0 1.93 1.12 2.03 1.72l0.14 0.85c0.07 0.41-0.21 0.8-0.61 0.86h-0.12z"/>
 <path d="m14.1 18.31h-4.21c-2.53 0-2.64-1.52-2.71-2.53l-0.42999-6.61c-0.03-0.41 0.28999-0.77001 0.69999-0.80001 0.42-0.03 0.77001 0.29002 0.80001 0.70002l0.42999 6.6c0.07 0.98 0.08001 1.13 1.21 1.13h4.21c1.13 0 1.14-0.15 1.21-1.13l0.43-6.6c0.03-0.41 0.37-0.73002 0.8-0.70002 0.41 0.03 0.73 0.38001 0.7 0.80001l-0.43 6.6c-0.07 1.02-0.17 2.54-2.71 2.54z"/>
</svg>

<svg width="24" height="24" viewBox="0 0 24 24"  xmlns="http://www.w3.org/2000/svg">
<path d="M15 22.75H9C3.57 22.75 1.25 20.43 1.25 15V9C1.25 3.57 3.57 1.25 9 1.25H15C20.43 1.25 22.75 3.57 22.75 9V15C22.75 20.43 20.43 22.75 15 22.75ZM9 2.75C4.39 2.75 2.75 4.39 2.75 9V15C2.75 19.61 4.39 21.25 9 21.25H15C19.61 21.25 21.25 19.61 21.25 15V9C21.25 4.39 19.61 2.75 15 2.75H9Z" />
<path d="M17.9 9.8C17.88 9.8 17.85 9.8 17.83 9.8C14.37 9.46 10.93 9.31999 7.52003 9.66999L6.18002 9.8C5.76002 9.84 5.40002 9.54 5.36002 9.13C5.32002 8.72 5.62002 8.34999 6.03002 8.30999L7.37002 8.17999C10.88 7.82999 14.42 7.95999 17.98 8.30999C18.39 8.34999 18.69 8.72 18.65 9.13C18.61 9.51 18.28 9.8 17.9 9.8Z" />
<path d="M14.29 9.13995C13.93 9.13995 13.61 8.87996 13.55 8.51996L13.41 7.66995C13.39 7.52995 13.35 7.30995 13.31 7.25995C13.31 7.25995 13.21 7.19995 12.85 7.19995H11.13C10.76 7.19995 10.66 7.25995 10.66 7.25995C10.64 7.29995 10.6 7.51996 10.58 7.65996L10.44 8.51996C10.37 8.92996 9.97999 9.19995 9.57999 9.13995C9.16999 9.06995 8.89999 8.67995 8.95999 8.27995L9.09999 7.41995C9.20999 6.77995 9.38999 5.70996 11.13 5.70996H12.85C14.6 5.70996 14.78 6.82995 14.88 7.42995L15.02 8.27995C15.09 8.68995 14.81 9.07995 14.41 9.13995C14.38 9.13995 14.33 9.13995 14.29 9.13995Z" />
<path d="M14.1 18.3101H9.89C7.36 18.3101 7.24999 16.7901 7.17999 15.7801L6.75 9.17012C6.72 8.76012 7.03999 8.40011 7.44999 8.37011C7.86999 8.34011 8.22 8.66013 8.25 9.07013L8.67999 15.6701C8.74999 16.6501 8.76 16.8001 9.89 16.8001H14.1C15.23 16.8001 15.24 16.6501 15.31 15.6701L15.74 9.07013C15.77 8.66013 16.11 8.34011 16.54 8.37011C16.95 8.40011 17.27 8.75012 17.24 9.17012L16.81 15.7701C16.74 16.7901 16.64 18.3101 14.1 18.3101Z" />
</svg>
